X:1
T:Title
%%score { ( 1 4 ) | ( 2 3 ) }
L:1/8
M:4/4
K:D
V:1 treble nm="Grand Piano"
V:4 treble 
V:2 bass 
V:3 bass 
V:1
 z4 z2[Q:1/4=100] DE | F2 F>F F2 ED | [Fd]2 [Fd]>[Fd] [Fd]2 [Ac][GB] | %3
 [FA]2 [FA][GB] [FA]2 [EG][DF] |[M:3/4] [CE]6 |[M:1/4] [CA]G |[M:4/4] F2 F>F F2 ED | %7
 [Fd]2 [Fd]>[Fd] [Fd]2 [Ac][GB] | [FA]2 [FA][DGB] [DFA]2 [A,CG]>[K:bass][G,CE] |[M:3/4] [F,D]6 | %10
[M:1/4][K:treble] [DFA][DFA] |[M:4/4] [DGB]2 [DGB]2 [DGB][DGB] [DGd]2 | %12
 A-[A,CA-][A,A]-[A,GA-] [DFA]2 [DFA]2 | [CEG]2 [CEG]2 [CEG][CGB][FA][EG] | [DF]EFG [DFA]2 [DFA]2 | %15
 [DGB][DGB] [DGB]2 [DGB][DGB] [DGd]2 | [DFA][DFA] [DFA]2 [DFA]3 [A,DF] | %17
 [CEG][CEG] [CEG]2 [EG]B[FA][EG] | FEFG [DFA]2 [A,DF][K:bass][G,CE] | D2 D2 z4[K:treble] | %20
 [CE]6 z2 | [CEG]2 .[A,EG]2 [CEG][CGB][FA]G | FEFG [DFA]2 [A,FA]2 | [Fd]6[K:bass][K:treble] z2 | %24
 .[Ad]2 z2 z4 | z4 z2 c2 |[M:7/8] d-d-d- d- d3 |] %27
V:2
 z4 z2 [D,F,][D,G,D] | [D,A,D]2 [D,A,D]>[D,A,D] [D,A,D]2 [D,G,A,][D,F,A,] | %2
 [D,A,]2 [D,A,]>[D,A,] [D,A,]2 [D,A,][D,A,] | [D,D]2 [D,D][D,D] [D,D]2 [D,A,][D,A,] | %4
[M:3/4] [A,,A,]6 |[M:1/4] z E |[M:4/4] [D,A,D]2 [D,A,D]>[D,A,D] [D,A,D]2 [D,G,A,][D,F,A,] | %7
 [D,A,]2 [D,A,]>[D,A,] [D,A,]2 [D,A,][D,A,] | [D,D]2 [D,D]G, A,2 A,,>A,, |[M:3/4] D,6 | %10
[M:1/4] D,D, |[M:4/4] G,2 G,2 G,G, B,,2 | D,E,F,E, D,2 D,2 | A,,2 A,,2 A,,A,,B,,C, | %14
 z CDE D,2 D,2 | G,G, G,2 G,G, B,,2 | D,D, D,2 D,3 D, | A,,A,, A,,2 z G[A,,A,][A,,A,] | %18
 [D,A,D][D,A,C]DE D,2 D,G,, | D,E,[F,A,]E, D,D, D,2 | z4 z2 [A,,A,]2 | A,,2 z B, A,,A,, z E | %22
 DCDE D,2 D,2 | z4 z2 B,2 | =CF,G,A,[K:treble] [B,DG]2 [^A,=F^G]2 | %25
 [A,FA]2 [A,DF]2 [A,CG][A,CG] .[A,FG]2 |[M:7/8][K:bass] D,2- [D,-C] [D,-B,] [D,A,]3 |] %27
V:3
 x8 | x8 | x8 | x8 |[M:3/4] x6 |[M:1/4] [A,,A,]2 |[M:4/4] x8 | x8 | x8 |[M:3/4] x6 |[M:1/4] x2 | %11
[M:4/4] x8 | x8 | x8 | [D,A,]2 [D,A,]2 z4 | x8 | x8 | z4 A,,2 z2 | z2 [D,A,]2 z4 | x8 | %20
 A,,G,,A,,B,, A,,2 z D | z2 A,,2 z2 [A,,A,]2 | [D,A,]2 [D,A,]2 z4 | .[D,A,]2 F,G, A,A, z E | %24
 x4[K:treble] x4 | x8 |[M:7/8][K:bass] A, z z z z z2 |] %27
V:4
 x8 | x8 | x8 | x8 |[M:3/4] x6 |[M:1/4] x2 |[M:4/4] x8 | x8 | x15/2[K:bass] x/ |[M:3/4] x6 | %10
[M:1/4][K:treble] x2 |[M:4/4] x8 | .[DF]2 .D2 z4 | z4 z2 A,2 | x8 | x8 | x8 | z4 C2 z2 | %18
 x7[K:bass] x | F,G, z G, [G,D][F,D][K:treble] [A,DF]2 | A,2 A,2 A,2 [CE]F | x8 | x8 | %23
 z[K:bass] E, A,2[K:treble] DD .[DGd]2 | F-[FAd] [DAd]2 d2 d2 | d2 d2 eB z/ D/C/B,/ | %26
[M:7/8] F-[DF]A G F3 |] %27

